X:22
T:Compliments to My Wife Bea
R:strathspey
C:John Campbell
D:John Campbell, Cape Breton Violin Music (1975-2006)
N:for a 4 part Kinnon Beaton reel setting see Dungreen Collection (revised 2007)
Z:Paul Stewart Cranford (P.S.C.), <http://www.cranfordpub.com>
L:1/8
M:C
Q:300
K:Ddor
E|Dc A>GF<A|G<CE>F G>FE<C|Dc A>GF<A|G<CG>E D2 D>E|
Dc A>GF<A|G<CE>F G>FE<C|Dc A>GF<A|G<Ec>E D2 D||
||e|d>ef>g a>df<a|g<ce>f g>fe>c|d<ef>g a>df<a|g<cg>e d2 d>e|
d>ef>g a>df<a|g<ce>f g>fe>g|f<de>c d>cA<c|G<Ec>E D2 D|]
